X: 1134 ~ sans the gingerbread, > &amp; (3 
T: The Norfolk Hornipe (Ryan's / Cole's) 
T: The Men from Ulster (O'Neill's)
C: credited to W.H. Whiddon
M: 4/4
L: 1/8
R: Hornpipe
K: G Major
|: DB, | 
G,B,DG BGDB, | CEAB cBAc | Bdgd ecAG | FAGE DFCA, | 
G,B,DG BGDB, | CEAB cdef | gfge dcBA | G2 d2 g2 :|
|: Bc | 
dgfg egfg | bgaf gedB | ceAc BdGB | AFGE D2 Bc | 
dgfg egfg | bgaf gedB | cdef gfge | dBcA G2 :|
